X: 34052
T: Reel De L'aveugle
R: reel
M: 4/4
K: Amajor
FD (3DDD EDB,D|A,DFA BAFD|CEAB cBAG|FAde fdAG|
F2 (3FFD ED (3B,CD|A,DFA BAFD|CEAB cE (3BAG|FdAF D2:|
fd (3BAG FdAd|BA^GB edcB|Acef (3ggg fd|fe^df ea^g=g|
fdAF d2 FA|BA^GB e2 cB|A2 (3fed cA (3GFE|DdAF D2:|

